X: 10771
T: 4. EIGHT BELLS -- Hornpipe
R: hornpipe, reel
B: K\"ohler's Violin Repository, v.1, 1885 p.77 #1
F: http://www.archive.org/details/klersviolinrepos01edin
Z: 2012 John Chambers <jc:trillian.mit.edu>
N: The note counts for the repeats aren't right.
M: C|
L: 1/8
K: G
|:\
v(GB)d^c (ec)dB | (GB)d^c (ec)dB | (GB)d^c (ed)=cB | (AG)FE (Dc)BA |\
 (GB)d^c (ec)dB | (GB)d^c (ec)dB | (AB)ce  (dc)BA  | G2g2g2 :|
|: uB2 |\
(AB)AG (FA)dc | (Bc)BA (GB)ed | (^cd)cB (Aa)ge | (d^c)de (d2B2) |\
(AB)AG (FA)dc | (Bc)BA (GB)ed | (^cd)cB (Aa)ge | (d^c)de (d=c)BA :|

%%sep 2 1 500

